svgs/sharp-light/trash-plus.svg

<svg xmlns="http://www.w3.org/2000/svg" viewBox="0 0 448 512"><!--! Font Awesome Pro 6.6.0 by @fontawesome - https://fontawesome.com License - https://fontawesome.com/license (Commercial License) Copyright 2024 Fonticons, Inc. --><path d="M160 0l-8.9 0-4.7 7.5L111.1 64 64.1 64 32 64 0 64 0 96l34.3 0L64 512l320 0L413.7 96 448 96l0-32-32 0-32.1 0-47.1 0L301.6 7.5 296.9 0 288 0 160 0zM299.1 64L148.9 64l20-32 110.3 0 20 32zM93.8 480L66.4 96l315.3 0L354.2 480 93.8 480zM240 192l-32 0 0 16 0 64-64 0-16 0 0 32 16 0 64 0 0 64 0 16 32 0 0-16 0-64 64 0 16 0 0-32-16 0-64 0 0-64 0-16z"/></svg>

<svg xmlns="http://www.w3.org/2000/svg" viewBox="0 0 448 512"><!--! Font Awesome Pro 6.4.0 by @fontawesome - https://fontawesome.com License - https://fontawesome.com/license (Commercial License) Copyright 2023 Fonticons, Inc. --><path d="M160 0h-8.9l-4.7 7.5L111.1 64H64.1 32 0V96H34.3L64 512H384L413.7 96H448V64H416 383.9 336.9L301.6 7.5 296.9 0H288 160zM299.1 64H148.9l20-32H279.1l20 32zM93.8 480L66.4 96H381.6L354.2 480H93.8zM240 192H208v16 64H144 128v32h16 64v64 16h32V368 304h64 16V272H304 240V208 192z"/></svg>
